assets/images/Location.svg

<svg fill="none" height="30" viewBox="0 0 30 30" width="30" xmlns="http://www.w3.org/2000/svg"><g clip-rule="evenodd" fill="#fff" fill-rule="evenodd"><path d="m9.06253 12.5c0-3.27919 2.65827-5.9375 5.93747-5.9375s5.9375 2.65831 5.9375 5.9375c0 3.2792-2.6583 5.9375-5.9375 5.9375s-5.93747-2.6583-5.93747-5.9375zm5.93747-4.0625c-2.2436 0-4.0625 1.8188-4.0625 4.0625s1.8189 4.0625 4.0625 4.0625c2.2437 0 4.0625-1.8188 4.0625-4.0625s-1.8188-4.0625-4.0625-4.0625z"/><path d="m4.40549 11.0711c.4429-5.3733 4.93309-9.5086 10.32461-9.5086h.5399c5.3915 0 9.8817 4.1353 10.3246 9.5086.2379 2.8864-.6537 5.7525-2.487 7.9946l-5.9913 7.3272c-1.0938 1.3377-3.1387 1.3377-4.2325.0001l-5.99131-7.3273c-1.83333-2.2421-2.72493-5.1082-2.487-7.9946zm10.32461-7.6336c-4.4157 0-8.09321 3.38685-8.45595 7.7876-.19802 2.4023.54404 4.7877 2.06986 6.6537l5.99129 7.3273c.3436.4201.9859.4201 1.3294 0l5.9914-7.3273c1.5258-1.866 2.2678-4.2514 2.0698-6.6537-.3627-4.40075-4.0402-7.7876-8.4559-7.7876z"/></g></svg>

<svg width="30" height="30" viewBox="0 0 30 30" fill="none" xmlns="http://www.w3.org/2000/svg">
<path fill-rule="evenodd" clip-rule="evenodd" d="M9.06253 12.5C9.06253 9.22081 11.7208 6.5625 15 6.5625C18.2792 6.5625 20.9375 9.22081 20.9375 12.5C20.9375 15.7792 18.2792 18.4375 15 18.4375C11.7208 18.4375 9.06253 15.7792 9.06253 12.5ZM15 8.4375C12.7564 8.4375 10.9375 10.2563 10.9375 12.5C10.9375 14.7437 12.7564 16.5625 15 16.5625C17.2437 16.5625 19.0625 14.7437 19.0625 12.5C19.0625 10.2563 17.2437 8.4375 15 8.4375Z" fill="white"/>
<path fill-rule="evenodd" clip-rule="evenodd" d="M4.40549 11.0711C4.84839 5.6978 9.33858 1.5625 14.7301 1.5625H15.27C20.6615 1.5625 25.1517 5.6978 25.5946 11.0711C25.8325 13.9575 24.9409 16.8236 23.1076 19.0657L17.1163 26.3929C16.0225 27.7306 13.9776 27.7306 12.8838 26.393L6.89249 19.0657C5.05916 16.8236 4.16756 13.9575 4.40549 11.0711ZM14.7301 3.4375C10.3144 3.4375 6.63689 6.82435 6.27415 11.2251C6.07613 13.6274 6.81819 16.0128 8.34401 17.8788L14.3353 25.2061C14.6789 25.6262 15.3212 25.6262 15.6647 25.2061L21.6561 17.8788C23.1819 16.0128 23.9239 13.6274 23.7259 11.2251C23.3632 6.82435 19.6857 3.4375 15.27 3.4375H14.7301Z" fill="white"/>
</svg>
